www/assets/icons/ramp_right.svg

<svg xmlns="http://www.w3.org/2000/svg" width="24" height="24" viewBox="0 0 24 24" fill='currentColor'><path d="M12.5 21h2V6.83l1.59 1.59L17.5 7l-4-4-4 4 1.41 1.41 1.59-1.58V9c0 4.27-4.03 7.13-6 8.27l1.46 1.46c1.91-1.17 3.44-2.54 4.54-4.03z"/></svg>

<svg width="24" height="24" viewBox="0 0 24 24" xmlns="http://www.w3.org/2000/svg" fill='currentColor'><path d="M12.5 21H14.5V6.83L16.09 8.42L17.5 7L13.5 3L9.5 7L10.91 8.41L12.5 6.83V9C12.5 13.27 8.47 16.13 6.5 17.27L7.96 18.73C9.87 17.56 11.4 16.19 12.5 14.7V21Z"/></svg>
